packages/heroicons/src/prism/plus-circle-o.svg

<!-- Generated by IcoMoon.io -->
<svg version="1.1" xmlns="http://www.w3.org/2000/svg" width="16" height="16" viewBox="0 0 16 16">
<title>plus-circle-o</title>
<path fill="#4a4a4a" d="M8 0c-4.418 0-8 3.582-8 8s3.582 8 8 8 8-3.582 8-8-3.582-8-8-8zM8 14c-3.314 0-6-2.686-6-6s2.686-6 6-6c3.314 0 6 2.686 6 6s-2.686 6-6 6zM12 9h-3v3h-2v-3h-3v-2h3v-3h2v3h3z"></path>
</svg>

<svg xmlns="http://www.w3.org/2000/svg" aria-hidden="true" fill="currentColor" viewBox="0 0 16 16">
  <path d="M8 0a8 8 0 100 16A8 8 0 008 0zm0 14A6 6 0 118 2a6 6 0 010 12zm4-5H9v3H7V9H4V7h3V4h2v3h3z"/>
</svg>
